X:1
T:Ethiopia, LMD
T:Ethiopia, LMD
T:William Henry Quillen, 1922
T:Public Domain Courtesy of the Cyber Hymnal™
C:William Henry Quillen, 1922
Z:Public Domain
Z:Courtesy of the Cyber Hymnal™
%%score ( 1 2 ) ( 3 4 )
L:1/8
Q:1/4=90
M:4/4
K:G
V:1 treble 
V:2 treble 
V:3 bass 
V:4 bass 
V:1
 Bdc | (z [GB])Bd B x3 | z [DG]BA G x3 | z [DF][Dc][DB] [DA] x3 | B4- [DB]Bdc | z [GB]Bd B x3 | %6
 z [Gc]cc B x3 | z [FA][EG][FB] [FA] x3 | G4- [DG] z3 | z ([DG][DG][DA] [GB]) z3 | %10
 z ([GB][GB][Ac] [Bd]) z3 | z ([Ge][Ge][Ge] [Ge])[Gd][G^c][Gc] | ([Fd][FB][FA]G [FA]) z3 | %13
 z ([DG][DG][DG] [GB] z3) | z ([Gc][Gc][Gd] [Ge]) z3 | z ([Fd][Fd][FB] [FA])[EG][FB][FA] | %16
 G4- !fermata![DG] |] %17
V:2
 x3 | B4- G G G x | G4- D D D x | F4- D D D x | D D D D x4 | B4- G G G x | c4- G G G x | %7
 A4- F F F x | G D D E x4 | x8 | x8 | x8 | x3 G x4 | x8 | x8 | x8 | G D D E x |] %17
V:3
 z3 | z ([G,D][G,D][G,D] [G,D]) z3 | (z [G,B,][G,B,][G,B,] [G,B,]) z3 | %3
 z ([D,A,][D,A,][D,A,] [D,A,])[D,A,][D,G,][D,F,] | ([G,,G,][G,,G,][G,,G,][G,,G,] [G,,G,]) z3 | %5
 z ([G,D][G,D][G,D] [G,D]) z3 | z ([C,E][C,E][C,E] [C,E]) z3 | %7
 z ([D,D][D,D][D,D] [D,D])[E,B,][D,D][D,C] | (B,B,B,C [G,,B,])D,E,F, | (z B,B,C [G,D])G,B,A, | %10
 z DDD [G,D]A,G,F, | z CB,C [E,B,][G,B,]A,A, | (A,B,CB, [D,C])D,E,F, | (z B,B,C [G,D])G,,A,,B,, | %14
 z CCC [C,B,]G,F,E, | z A,A,B, [D,C][E,B,][D,D][D,C] | B,B,B,C [G,,B,] |] %17
V:4
 x3 | x8 | x8 | x8 | x8 | x8 | x8 | x8 | G,,4- x4 | G,4- x4 | G,4- x4 | (E,4- x A,)A, x | D,4- x4 | %13
 G,4- x4 | C,4- x4 | D,4- x4 | G,,4- x |] %17

